X:69
T: ES WAR EINE SCHOENE JUEDIN
N: Z0070
O: Europa, Mitteleuropa, Deutschland, Schwaben, Hartgebirge
R: Sagen - Lied, Romanze, Tod
M: 4/4
L: 1/8
K: D
D2 | D2FGA4 | F4F2E2 | D4
A4 | A2d2d2c2 | c2B2A4
A4A2Bc | c2d2B4 | B4
B4 | c2d2A2G2 | F4A4
B2A2G2F2 | G4A4 | F6

